src/assets/icons/linkedin.svg

<svg width="14" height="14" viewBox="0 0 14 14" fill="none" xmlns="http://www.w3.org/2000/svg">
<g id="linkedin">
<g clip-path="url(#clip0_156_4474)">
<path id="Vector" d="M12.88 0H1.19612C0.557365 0 0 0.459377 0 1.09025V12.8004C0 13.4347 0.557365 14 1.19612 14H12.8765C13.5187 14 14 13.4312 14 12.8004V1.09025C14.0026 0.459377 13.5179 0 12.88 0ZM4.33912 11.6699H2.33362V5.43374H4.33912V11.6699ZM3.4055 4.48611H3.39149C2.74924 4.48611 2.33362 4.00838 2.33362 3.40988C2.33362 2.80088 2.76062 2.3345 3.41687 2.3345C4.07312 2.3345 4.47474 2.79738 4.48874 3.40988C4.48874 4.00838 4.07312 4.48611 3.4055 4.48611ZM11.669 11.6699H9.66349V8.26C9.66349 7.44275 9.37125 6.88536 8.64587 6.88536C8.09112 6.88536 7.76299 7.26075 7.61774 7.62562C7.56349 7.75687 7.54862 7.93536 7.54862 8.11824V11.6699H5.54312V5.43374H7.54862V6.30175C7.84087 5.88612 8.29675 5.28762 9.35725 5.28762C10.6741 5.28762 11.6699 6.15563 11.6699 8.02638L11.669 11.6699Z" fill="black"/>
</g>
</g>
<defs>
<clipPath id="clip0_156_4474">
<rect width="14" height="14" fill="white"/>
</clipPath>
</defs>
</svg>

<svg xmlns="http://www.w3.org/2000/svg" fill="none" viewBox="0 0 14 14"><g clip-path="url(#a)"><path fill="#000" d="M12.88 0H1.196C.557 0 0 .46 0 1.09V12.8c0 .635.557 1.2 1.196 1.2h11.68C13.52 14 14 13.431 14 12.8V1.09C14.003.46 13.518 0 12.88 0M4.34 11.67H2.333V5.434h2.005zm-.934-7.184H3.39c-.642 0-1.057-.478-1.057-1.076 0-.61.427-1.076 1.083-1.076s1.058.463 1.072 1.076c0 .598-.416 1.076-1.083 1.076m8.263 7.184H9.663V8.26c0-.817-.292-1.375-1.017-1.375-.555 0-.883.376-1.028.74-.055.132-.07.31-.07.493v3.552H5.544V5.434H7.55v.868c.292-.416.748-1.014 1.808-1.014 1.317 0 2.313.868 2.313 2.738z"/></g><defs><clipPath id="a"><path fill="#fff" d="M0 0h14v14H0z"/></clipPath></defs></svg>
